X:1
T:Ramoth, 88.68.86
T:Ramoth, 88.68.86
T:English Melody
T:Public Domain Courtesy of the Cyber Hymnal™
C:English Melody
Z:Public Domain
Z:Courtesy of the Cyber Hymnal™
%%score ( 1 2 ) 3
L:1/8
Q:1/4=170
M:3/2
K:F
V:1 treble 
V:2 treble 
V:3 bass 
V:1
 C4 | [CF]2 [CF]2 [DF]4 [EG]4 | [FA]2 [FA]2 [FA]4 [EG]4 | [FA]2 [EB]2 [Fc]4 [Fc]4 | %4
 [EB]2 [FA]2 [EG]4 [EG]4 | [FA]2 [EG]2 [FA]4 [F=B]4 | [Ec]8 [Fc]4 | [Fd]2 [Fd]2 [Fc]4 [FA]4 | %8
 [FA]2 [EG]2 [FA]4 [Fc]4 | [Fd]2 [Fd]2 [Fc]4 [FA]4 | [FA]2 [EG]2 [FA]4 [CF]4 | %11
 D2 [DG]2 [CF]4 [CE]4 | [CF]8 |] %13
V:2
 C4 | x12 | x12 | x12 | x12 | x12 | x12 | x12 | x12 | x12 | x12 | D2 x10 | x8 |] %13
V:3
 [F,A,]4 | [F,A,]2 [F,A,]2 [F,A,]4 [C,C]4 | [F,C]2 [F,C]2 [F,C]4 [C,C]4 | %3
 [F,C]2 [G,C]2 [A,C]4 [A,C]4 | [G,C]2 [F,C]2 [C,C]4 [C,C]4 | [F,C]2 [C,C]2 [F,C]4 [D,F,]4 | %6
 [C,G,]8 [F,A,]4 | [B,,B,]2 [D,B,]2 [F,A,]4 [F,C]4 | [C,C]2 [C,C]2 [F,C]4 [F,A,]4 | %9
 [B,,B,]2 [D,B,]2 [F,A,]4 [F,C]4 | [C,C]2 [C,C]2 [F,C]4 [A,,F,]4 | %11
 [B,,F,]2 [B,,B,]2 [C,A,]4 [C,G,]4 | [F,A,]8 |] %13

